!!!OTL: Ist denn Liebe ein Verbrechen (3-33), S. 84f
!!!id: K1167
**kern
*clefG2
*k[]
*C:
{8e
8f
=1
4g
4cc
8.dd
16cc
8b
8a
=2
8g
8e
4.g}
8r
=3
{8a
8a
=4
4g
2d
8.f
16e
=5
2c}
4r
=6
{8e
8f
=7
4g
4cc
8.dd
16cc
8b
8a
=8
8g
8e
4.g}
8r
=9
{8a
8a
=10
4g
2d
8.f
16e
=11
2c}
4r
=12
{8cc
8cc
=13
8b
8dd
2dd
8cc
8cc
=14
8cc
8ee
2ee}
=15
{8cc
8cc
=16
8b
8dd
2dd
8cc
8dd
=17
8ee
8dd}
=18
{8cc
8a
4.g
8g
=19
8.a
16g
8g
8f
4f}
=20
{8.a
16a
=21
4g
2d
8.f
16e
=22
2c}
4r
==
*-
!!!minrhy: 16
!!!meters: 4/4 ]  ZZ[8
!!!cut: Ist denn Liebe ein Verbrechen (3-33), S. 84f
!!!reg: Luxemburg
!!!trd: KINTZELE, Guillaume: An der Ucht, Bd. 3 Luxemburg 1928
!!!rhy1: X_X_  X__X__X_.XX_X_  X_X_X__.0_
!!!rhy2: X_X_  X__X___X_.X  X___0__
!!!key: K1167  16  C 4/4 ]  ZZ[8
!!!mod: HEPTATONIK IONISCH]  AMBITUS[10
!!!kad: 5151+3+241
!!!akz: 5+255_521_5+255_521_7+2+1+3_7+2+3_564_521_
!!!fot: 'a__b__a__b__c__cw_d__b__
!!!for: 'a__b__a__b__c__cw_d__bv_
!!!fok: '~a_\__~a_\__/__/__\__\__
!! PHRAS[AUFTAKTIG]
!!!fkt: Liebeskummer
!!!bem: in der Quelle mit einer 2. Stimme versehen
!! KINTZELE
!! PR[40] 2K[0] 2G[9] 3K[4] 3G[2] 4A[4] 4Ü[0] 5A[2] 6K[0] 6G[2]
!! 7K[0] 7G[0] 8A[0] MEHR[0] SI[21] ABS[57] SR[9] SP[12]
!! ST[12] 2k[9] 2g[25] 3k[0] 3g[2] 4d[2] 4ü[0] 5d[2] 6k[0] 6g[0]
!! 7k[0] 7g[0] 8d[0] mehr[0] si[39] dm[-18] sr[33] sp[5]
!! 1F[50] 2F[43] 3F[3] 4F[0] LF[0] 2P[3] 3P[0] 4P[0] TRI[0] DF[4] AB[60]
!! TF[0] U3K[0] U3[0] U4[0] U4Ü[0] U5[0] U6K[0] U6[0] U7K[0] U7[0]
!! N1[10] N2K[0] N2[14] N3K[0] N3[19] N4[16] N4Ü[0] N5[22] N6K[0] N6[19]
!!!n7k: 0] N7[0] O1[0] O2K[0] O2[0] O3K[0] O3[0] HÖ[0
